X:11205
T:Morning Star. FK.07
M:4/4
L:1/8
Q:160
C:"MS 18"
S:Kidson's H'pipe MS,early 20thC.
R:Hornpipe
O:England
A:Leeds
N:""MS 18 see version in Button & Whitakers Folk Dances no 15""in margin
Z:vmp.John Bagnall
K:G
"Qu"c2 | BdBG E2 G2 | AcAF D2 c2 | BdBG AcAF | D2 F2 G2 :|!
c2 | Bcdf g2 g2 | edcB A2 c2 | Bcdf g2 ag | f2 d2 d2 c2 |!
 Bcdf g2 a2 | edcB A2 c2 | BdBG AcAF | D2 F2 G2 |]
